X: 1
T: East Tennessee Blues
R: reel
Z: 2011 John Chambers <jc:trillian.mit.edu>
S: printed MS of unknown origin
M: C|
L: 1/8
K: C
ef |\
"C"gage gage | gage aged | "F"cdcA cdcA | cdcA dcAc |
"C"GEGA cAcd | edef g2e2 |1 "D7"d^cde ^fef2 | "G"g4 "G7"g2 :|2 "G"d^cdg- ged2 | "C"c3d c4 ||
|: "C"e4 e2[e2d2] | [e3c3][ed] [e4c4] | "F"A4 A2[A2G2] | [A3F3][AG] [A4F4] |
"C"GEGA cAcd | edef g2e2 |1 "D7"d^cde ^fef2 | "G"g3a "G7"g4 :|2 "G"d^cdg- ged2 | "C"c3d c4 ||
